folder-multiple-plus.svg

<svg fill="currentColor" viewBox="0 0 24 24"><path d="M2 20V6H0v14c0 1.1.9 2 2 2h18v-2zM22 4h-8l-2-2H6c-.4 0-.8.1-1.1.3l-.6.6c-.2.3-.3.7-.3 1.1v12c0 .4.1.8.3 1.1.1.1.2.2.2.3q.75.6 1.5.6h16c1.1 0 2-.9 2-2V6c0-1.1-.9-2-2-2m0 8h-3v3h-2v-3h-3v-2h3V7h2v3h3z"/></svg>

<svg  viewBox="0 0 24 24" fill="currentColor"><path  d="M2 20V6H0V20C0 21.1 .9 22 2 22H20V20H2M22 4H14L12 2H6C5.6 2 5.2 2.1 4.9 2.3L4.3 2.9C4.1 3.2 4 3.6 4 4V16C4 16.4 4.1 16.8 4.3 17.1C4.4 17.2 4.5 17.3 4.5 17.4C5 17.8 5.5 18 6 18H22C23.1 18 24 17.1 24 16V6C24 4.9 23.1 4 22 4M22 12H19V15H17V12H14V10H17V7H19V10H22V12Z"/></svg>
